!!!OTL: 237. Kozatshke
!!!Genre:	Kozatshke
!!!Mode:	Major
!!!Listening/dance:	dance
!!!:	*e:
!!!One_Mode:	no
**kern
*I"P1
*clefG2
*k[f#]
*G:
*M2/4
*>A
(16eeLL
16ddJJ)
=1
(16cc#XLL
16dd
16gg
16ddJJ)
(16bLL
16dd
16ccn
16aJJ)
=2
8gL
8GJ
8bL
8DJ
=3
((8qb/
16aLL)
16g#X
16a
16bJJ)
(16ccLL
16b
16cc
16ddJJ)
=4
(16ff#LL
16ee
16cc
16aJJ)
(16eeLL
16dd
16b
16gnJJ)
=5
(16cc#XLL
16dd
16gg
16ddJJ)
16bLL
16dd
16ccn
16bJJ
=6
8gL
8GJ
8bL
8DJ
=7
16aLL
16g#X
16a
16bJJ
16ccLL
16b
16cc
16ddJJ
*>A1
=8
16ff#LL
16ee
16cc
16aJJ
8gn
*>A2
=9:|!
16ff#LL
16ee
16cc
16aJJ
8g
=10!|:
*>B
(16f#LL
16a
16d
16f#JJ)
(16aLL
16b
16cc
16aJJ)
=11
(16gLL
16a
16b
16ccJJ
16ddLL
16ee
16ff#
16ggJJ)
=12
(16aa#XLL
16bb)
(16ff#
16ggJJ)
(16dd#XLL
16ee)
(16an
16ccJJ)
=13
(16ff#LL
16ee
16cc
16aJJ)
(16ff#LL
16ddn
16b
16gJJ)
=14
(16f#LL
16a
16d
16f#JJ)
(16aLL
16b
16cc
16aJJ)
=15
(16gLL
16a
16b
16ccJJ
16ddLL
16ee
16ff#
16ggJJ)
=16
(16aa#XLL
16bb)
(16ff#
16ggJJ)
(16dd#XLL
16ee)
(16an
16ccJJ)
=17
16ff#LL
16ee
16cc
16aJJ
4g
*>bM
*e:
=18:|!|:
*>C
16ff#LL
16gg
16gg#X
16aaJJ
(16aa#XLL
16bb)
(16ff#
16gg#JJ)
=19
(16dd#XLL
16ff#)
(16an
16ccJJ)
(16bLL
16a
16gn
16f#JJ)
=20
16eLL
16g
16b
16eeJJ
(16dd#XLL
16ee)
(16b
16ccJJ)
=21
16bLL
16a
16g
16f#JJ
(16eLL
16gJ
8BJ)
=22
(16bLL
16cc)
(16aa
16ccJJ)
(16a#XLL
16b)
(16gg
16bJJ)
=23
(16g#XLL
16an)
(16ff#
16aJJ)
(16f#LL
16gn)
(16ee
16gJJ)
=24
16f#LL
16a
16cc
16eeJJ
(16dd#XLL
16ee)
(16a
16ccJJ)
=25
16bLL
16a
16g
16f#JJ
4e
*>eM
=:|!
*-
